X:1
T:Title
%%score { ( 1 3 ) | ( 2 4 ) }
L:1/8
M:9/8
K:Ab
V:1 treble nm="Grand Piano"
V:3 treble 
V:2 bass 
V:4 bass 
V:1
 z3 z2[Q:1/4=100] [Ec] [DB]2 [CA] | [CE]3- [CE]2 [DF] [DG]2 [CA] | [EB]3- [EB]2 [Fd] [Ec]2 [DB] | %3
 [DF]3- [DF]2 G A2 B |[M:5/8] [Ec]-[Ec]- [Ec]3 |[M:2/4] [Ec] [DB]2 [CA] |[M:9/8] E3- E2 A B2 c | %7
 [Fd]3- [Fd]2 [FB] [Ec]2 [Ed] | [Ae]3- [Ae]2 [Fd] [DEG]2 [DEB] |[M:3/4] [CEA]6 | %10
[M:12/8] z3 c6- c2 z |[M:9/8] z3 e6- |[M:3/8] e3 | Ace |[M:6/4] .d12 |[M:4/4] c8 |[M:2/4] EE AB | %17
[M:6/4] .c12 |[M:4/4] e8 |[M:2/4] ee dc |[M:13/8] d-d-d-d-d- d3 z z z z2 |[M:4/4] A8 |] %22
V:2
 z3 z2 [A,,A,] [A,,E,]2 [A,,E,] | [A,,A,]3- [A,,A,]2 [D,A,] [B,,E,]2 [A,,E,] | %2
 [E,G,]3- [E,G,]2 [B,,B,] [B,,F,]2 [B,,F,] | [B,,B,]3- [B,,B,]2 [E,B,D] [E,A,C]2 [E,G,E] | %4
[M:5/8] [A,,A,]-[A,,A,]- [A,,A,]3 |[M:2/4] [A,,A,] [A,,E,]2 [A,,A,] | %6
[M:9/8] [A,C]3- [A,C]2 [_G,A,C] [F,A,D]2 [E,A,E] | [D,A,]3- [D,A,]2 [D,A,] [A,,A,]2 [B,,A,] | %8
 [C,A,]3- [C,A,]2 [D,A,] E,2 E, |[M:3/4] A,,6 |[M:12/8] A,,C,E, A,3 A, A,2 A,2[K:treble] C | %11
[M:9/8] B,2 D z2 E E2 E |[M:3/8] E3 | E,A,C |[M:6/4] z2 z EEE E2 B,E,G,B, | %15
[M:4/4] z2[K:treble] CC CC C2 |[M:2/4][K:bass] A,,A,, C,E, | %17
[M:6/4] A,2 A, A,3 A,2[K:treble] C B,2 D |[M:4/4] z2 EE- EE E2 |[M:2/4] CC[K:bass] B,=A, | %20
[M:13/8] z2 D D2 D[K:treble] F2 [B,FA] [B,EG]3[K:bass] [E,DE] |[M:4/4] [A,CE]8 |] %22
V:3
 x9 | x9 | x9 | x9 |[M:5/8] x5 |[M:2/4] x4 |[M:9/8] x9 | x9 | x9 |[M:3/4] x6 | %10
[M:12/8] EAB z3 EEE E2 e |[M:9/8] d2 f z2 A A2 A |[M:3/8] A3 | x3 |[M:6/4] z2 z GGG G2 dGBd | %15
[M:4/4] z2 EE EE E2 |[M:2/4] x4 |[M:6/4] z2 E E2 E E2 e d2 f |[M:4/4] z2 AA- AA A2 |[M:2/4] x4 | %20
[M:13/8] z2 F F2 F A2 d d3 G |[M:4/4] x8 |] %22
V:4
 x9 | x9 | x9 | x9 |[M:5/8] x5 |[M:2/4] x4 |[M:9/8] x9 | x9 | x9 |[M:3/4] x6 | %10
[M:12/8] x11[K:treble] x |[M:9/8] z3 C6- |[M:3/8] C3 | x3 |[M:6/4] .B,12 |[M:4/4] A,8[K:treble] | %16
[M:2/4][K:bass] x4 |[M:6/4] x8[K:treble] x4 |[M:4/4] C8 |[M:2/4] x2[K:bass] x2 | %20
[M:13/8] B,-B,-B,-B,-B,- B,3[K:treble] z z z z2[K:bass] |[M:4/4] x8 |] %22

